!!!COM: Anon.
!!!OTL: Atasket, Atasket
!! Maria Cadilla de Martinez,
!! Juegos Y Canciones Infantiles de Puerto Rico
!! Talleres Graficos, Cas Baldrich, Brau 93, San Juan, P.R.
!! 1940.  Derechos reservados de la Autora
!! page 125
!! Allegro
**kern
*clefG2
*k[f#]
*M2/2
{4dd
=
2dd
4b},
{4ee
=
2dd
4b},
8r
{8cc
=
4dd
4dd
4b
4ee
=
2dd
4b},
8r
{8b
=
4cc
4cc
4cc
8r
8a
=
8cc
4cc
4.cc},
{4a
=
4dd
4cc
4b
4a
=
4b
2.dd}
*>verse2
=
2dd
4b},
{4ee
=
2dd
4b},
8r
{8cc
=
4dd
4dd
4b
4ee
=
2dd
4b},
8r
{8b
=
4cc
4cc
4cc
8r
8a
=
8cc
4cc
4.cc},
{4a
=
4dd
4cc
4b
4a
=
4b
2g}
==
*-
